X: 6
T:Hell Broke Loose In Georgia
% Nottingham Music Database
S:via PR
M:4/4
L:1/4
K:G
"G"dd "C"e/2d/2e/2f/2|"G"g/2e/2d/2c/2 B/2G/2A/2B/2|"C"A3B/2G/2|"D7"A3A|
"G"dd "C"e/2d/2e/2f/2|"G"g/2e/2d/2c/2 B/2G/2A/2B/2|\
"Am"d/2e/2d/2c/2 "D7"B/2G/2A|"G"G4::
"G"B2 G2|"C"A/2B/2A/2B/2 "D7"c2|"G"B/2A/2B/2c/2 d/2c/2d/2B/2|\
"A7"A/2G/2F/2E/2 "D7"D2|"G"B2 G2|"C"A/2B/2A/2B/2 "D7"c2|"G"BB "D7"A/2B/2A|"G"GB G2:|<end>
<start>
